assets/aimg/handclick.svg

<svg fill="none" height="290" viewBox="0 0 265 290" width="265" xmlns="http://www.w3.org/2000/svg"><path clip-rule="evenodd" d="m65.1594 31c0-17.1208 13.8792-31 31-31 17.1206 0 30.9996 13.8792 30.9996 31v84.689c3.269-.454 6.607-.689 10-.689h55c39.765 0 72 32.236 72 72v31c0 39.764-32.235 72-72 72h-55c-19.907 0-37.9276-8.079-50.961-21.138-.2119-.2-.4216-.404-.6292-.612l-76.48911-76.489c-12.10625-12.106-12.10626-31.734 0-43.841 12.10621-12.106 31.73441-12.106 43.84061 0l12.2391 12.239z" fill="#84bf42" fill-rule="evenodd"/></svg>

<svg width="265" height="290" viewBox="0 0 265 290" fill="none" xmlns="http://www.w3.org/2000/svg">
<path fill-rule="evenodd" clip-rule="evenodd" d="M65.1594 31C65.1594 13.8792 79.0386 0 96.1594 0C113.28 0 127.159 13.8792 127.159 31V115.689C130.428 115.235 133.766 115 137.159 115H192.159C231.924 115 264.159 147.236 264.159 187V218C264.159 257.764 231.924 290 192.159 290H137.159C117.252 290 99.2314 281.921 86.198 268.862C85.9861 268.662 85.7764 268.458 85.5688 268.25L9.07969 191.761C-3.02656 179.655 -3.02657 160.027 9.07969 147.92C21.1859 135.814 40.8141 135.814 52.9203 147.92L65.1594 160.159V31Z" fill="#84BF42"/>
</svg>
